X:1
T: The Countess of Crawford
C:Peter Milne
R:Strathspey
Q: 128
K:A
M:4/4
L:1/16
|:"aka Dunecht House"E2|A3c BAGF EC3 C3B,|A,3B, C3D E6E2|A4 BAGF EC3 CE3|A3E A3B c6d2|
e3c A3E FA3 EC3|A,3B, C3D E6G2|((3A2c2e2) ((3c2A2E2) ((3F2A2d2) ((3c2A2E2) |((3C2E2A2) ((3G2B2d2) A4-A2:|
|:e2|dcBA d3B e3c f3d|e3c a3c dcBA G3d|dcBA d3B e3c f3e|ge3 b3g a6e2|
((3f2b2f2) ((3e2a2e2) ((3d2e2d2) c3e|d3B dcBA GB3 GE3|CE3 E3A DF3 F3A|((3G2A2B2) ((3G2B2e2) cA3 A2:|
